svgs/bt_scanner.svg

<?xml version="1.0" encoding="UTF-8"?>
<svg width="192" height="192" fill="none" version="1.1" viewBox="0 0 192 192" xmlns="http://www.w3.org/2000/svg">
 <path d="m170 137.69v15.634c0 9.2104-7.4657 16.676-16.676 16.676h-15.634m-115.69-32.31v15.634c0 9.2104 7.4657 16.676 16.676 16.676h15.634m-32.31-115.69v-15.634c0-9.2104 7.4657-16.676 16.676-16.676h15.634m115.69 32.31v-15.634c0-9.2104-7.4657-16.676-16.676-16.676h-15.634" stroke="#000" stroke-linecap="round" stroke-linejoin="round" stroke-width="12"/>
 <path d="m67 66.5 58 59.001-29 29.5v-118l29 29.5-58 59.001" stroke="#000" stroke-linecap="round" stroke-linejoin="round" stroke-width="12"/>
</svg>

<svg xmlns="http://www.w3.org/2000/svg" width="192" height="192" fill="none" viewBox="0 0 192 192"><path stroke="#000" stroke-linecap="round" stroke-linejoin="round" stroke-width="12" d="M170 137.69v15.634c0 9.21-7.466 16.676-16.676 16.676H137.69M22 137.69v15.634C22 162.534 29.466 170 38.676 170H54.31M22 54.31V38.676C22 29.466 29.466 22 38.676 22H54.31M170 54.31V38.676C170 29.466 162.534 22 153.324 22H137.69M67 66.5l58 59.001-29 29.5v-118l29 29.5-58 59.001"/></svg>
